X:1
T:Entrance of the Swans
T:Entrance of the Swans
T:Swan Lake, Piano Arrangement for 3 hands
T:Hinci
C:Hinci
%%score { ( 1 2 7 ) | ( 3 6 8 ) | ( 4 5 ) }
L:1/8
Q:1/4=132
M:4/4
K:C
V:1 treble nm="Piano" snm="Pno."
V:2 treble 
V:7 treble 
V:3 bass 
V:6 bass 
V:8 bass 
V:4 bass 
V:5 bass 
V:1
!p!"^Allegro." z ^C (^D2!<(! F).D/.F/ (^F2 | F)^G (^A2!<)!!mp!!<(! c).A/.c/ (^c2!<)! | %2
!mf!!<(! ^A)^d (f2 ^c).d/.f/ (^f2 | ^d)^g (^a2 g)(a/b/ c')(b/c'/!<)! | %4
 [^c^c']) ^C (^D2!<(! F).D/.F/ (^F2 | F)^G (^A2!<)!!mp!!<(! c).A/.c/ (^c2!<)! | %6
!mf!!<(! ^A)^d (f2 ^c).d/.f/ (^f2 | ^d)^g (^a2 g)(a/b/ c')(b/c'/!<)! |!f! ^c) [c^c'] [ff']6- | %9
 [ff'] [^c^c'] [ff']6- | [ff'] ^A, ^C6- | [C^A^f] ^A, ^C6- | [C^A^f] [f^f'] [^a^a']6- | %13
 [^F^daa'] z z!>(! F ^G(F/G/) ^A(G/A/)!>)! |!mp! B!p!B, ^C2!<(! ^D.C/.D/ (E2 | %15
 ^D)^F (^G2!<)!!mp!!<(! ^A).G/.A/ (B2 | ^G)^c!<)!!mf!!<(! (^d2 B).c/.d/ (e2 | %17
 ^c)^f (^g2 f)(g/a/ ^a)(g/a/!<)! | [Bb]) B, (^C2!<(! ^D).C/.D/ (E2 | %19
 ^D)^F (^G2!<)!!mp!!<(! ^A).G/.A/ (B2 | ^G)^c!<)!!mf!!<(! (^d2 B).c/.d/ (e2 | %21
 ^c)^f (^g2 f)(g/a/ ^a)(g/a/!<)! |!f! B) [Bb] [^d^d']6- | [dd'][Bb] [^d^d']6- | %24
 [dd'] z z B ^c(B/c/) ^d(c/d/) | [^Ge] z z B ^c(B/c/) ^d(c/d/) | [^Ge]!f! [ee'] [^g^g']6- | %27
 [gg']!mf! z z e ^f(e/f/) ^g(f/g/) | [^ca]!mf! [Aa] (!>![c^c']2 [Aa])[Bb]/[cc']/ (!>![dd']2 | %29
 [Bb])[ee'] (!>![^f^f']2 [dd'])[ee']/[ff']/ (!>![^g^g']2 | [ee']) z z!f! a (^a3 b) | %31
 ^f'2 z ^f (^g3 a) | e'!mf! [Aa] (!>![^c^c']2 [Aa])[Bb]/[cc']/ (!>![dd']2 | %33
 [Bb])[ee'] (!>![^f^f']2 [dd'])[ee']/[ff']/ (!>![^g^g']2 | [ee']) z z!f! a (^a3 b) | %35
 ^f'2 z ^f (^g3 a) | e' E (!>!G2 ^F)E/D/ ^C2 | DD (!>!F2 E)D/C/ (!>!B,2 | %38
 C) a (!>!c'2 b)a/g/ (!>!^f2 | g)g (!>!_b2 a)g/^f/ (=f2 | %40
 ^f)!mf![Dd] (!>![^Ff]2 [Dd])[Ee]/[Ff]/ (!>![Gg]2 | %41
 [Ee])[Aa] (!>![Bb]2 [Gg])[Aa]/[Bb]/ (!>![^c^c']2 | [dd']) z z!f! d (^d3 e) | b z z B (^c3 d) | %44
 a!mf! [Dd] (!>![^F^f]2 [Dd])[Ee]/[Ff]/ (!>![Gg]2 | %45
 [Ee])[Aa] (!>![Bb]2 [Gg])[Aa]/[Bb]/ (!>![^c^c']2 | [dd']) z z!f! d (^d3 e) | b z z B (^c3 d) | %48
!f! [Aa][Aa] (!>![cc']2 [Bb])[Aa]/[Gg]/ (!>![^F^f]2 | %49
 [Gg])[Gg] (!>![_B_b]2 [Aa])[Gg]/[Ff]/ (!>![Ee]2 | %50
 [Ff])[dd'] (!>![ff']2 [ee'])[dd']/[cc']/ (!>![Bb]2 | %51
 [cc'])[cc'] (!>![_e_e']2 [dd'])[cc']/[Bb]/ (!>![_B_b]2 | %52
 [Bb])([Bgb][Gg])([Bgb] [cgc'])([Ada][dad'])([cdac'] | %53
 [Bdgb])([Bgb][Gg])([Bgb] [cgc'])([Ada][dad'])([cdac'] | %54
 [Bdgb])(!>![dad'][Bgb])(!>![dad'] [Bgb])(!>![dad'][Bgb])(!>![_egc'_e'] | %55
 [dgbd'])(!>![dad'][Bgb])(!>![dad'] [Bgb])(!>![dad'][Bgb])(!>![_egc'_e'] | %56
[Q:1/4=108] [dgbd']) z!p! (!>!d2 [GB]2) (!>!g2 | [^A^f]2) (^c>d [^Ff]2) (c>d | %58
 ^f2) (^A>B [Dd]2) (A>B | [Dd]2) (F>^F) (!>!d3 ^c) | [B,DB]2 (!>!^f2 [^D^d]2) (!>!a2 | %61
 ^g2) (^d>e [^Fg]2) (d>e | ^g2) (c>^c [Ee]2) (=c>^c | [Ee]2) (G>^G)!>(! (!>!e3 ^d)!>)! | %64
!pp! [^CE^c][Q:1/4=126] z!ff! z/ [Cc]/ z/ [^D^d]/ z/ [Ee]/ z/ [^G^g]/ z/ [c^c']/ z/ [ee']/ | %65
 ([^f^f']4 [^d^d'])([dd'][^g^g'][ff']) | [ee']!>![^c^c'] !>![ee']2- [ee']!>![cc'] !>![^d^d']2- | %67
 [dd']!>![^c^c'] !>![ee']2- [ee'] [^d^d']2 ([ee'] | %68
 [^ce^c']) z/ [^Cc]/ z/ [^D^d]/ z/ [Ee]/ z/ [^^F^^f]/ z/ [^G^g]/ z/ [cc']/ z/ [ee']/ | %69
 ([^f^f']4 [^d^d'])([dd'][^g^g'][ff']) | [ee']!>![^c^c'] !>![ee']2- [ee']!>![cc'] !>![^d^d']2- | %71
 [dd']!>![^c^c'] !>![ee']2- [ee'] [^d^d']2 ([ee'] | %72
 [^ce^c']) z/ [Ee]/ z/ [^G^g]/ z/ [cc']/ !>![ee']3 [^d^d'] | %73
 [^ce^c'] z/ [Ee]/ z/ [^G^g]/ z/ [cc']/ !>![ee']3 [^d^d'] | %74
 z/ [^ce^g^c']/ z/ [cc']/ z/ [^dgc'^d']/ z/ [ee']/ z/ [^f^f']/ z/ [ee']/ z/ [fgc'e'f']/ z/ [g^g']/ | %75
 !//-!a7/2 a'7/2 z/ [^g^g']/ | %76
 z/ [bd'^f'b']/ z/ [aa']/ z/ [^g^g']/ z/ [aa']/ z/ [bb']/ z/ [aa']/ z/ [^ff']/ z/ [dd']/ | %77
 ([^c^c'][^d^d']) [ee']2- [ee']([^g^g'][ee'][dd'] | %78
 [^c^c'])([^g^g'][ee'][^d^d'] [c^c'])[gg'][ee'][dd'] | %79
 [^c^c']([^g^g'][ee'][^d^d'] [c^c'])([gg'][ee'][dd'] | %80
 !arpeggio![E^G^c]2) [ce^g^c']2 [E,^G,^C]2 !fermata!z2 | %81
"^Moderato assai quasi andante."[Q:1/4=92]"^\n"!p! ^c'4 z4 | (c'2 c') x ^d'2 c'2 | %83
 [^c'^g']2 (^b>c' e'2) (b>c' | e'2) (^^f>^g) (!>!e'3 ^d') | [^c^c'-]8 | %86
 c'(e'^d'^c') !///-!^b7/4 c'7/4 (=b/4=c'/4) | [^c^g^c'] z [F^Gf]6- | %88
 [FG^cf] z ([C^F^d][^CEc]) (A2 ^G2) | [^G^c] z !>!^g2- g(^de=c | [E^G^c]) z !>!^g'2- g'^d'e'c' | %91
 !///-!^c'7/2 ^d'7/2 (3c'/^b/c'/ | (3.e'.^d'.^c' (3.a.^g.e z4 | ^C8- | C2 z2 z4 | !fermata!z8 |] %96
V:2
 z2 z =C B,3 ^A, | (F2 E2) (^D2 ^C2) | ^F3 ^G =A3 ^A | ^B3 ^c ^d3 =d | x2 z =C B,3 ^A, | %5
 (F2 E2) (^D2 ^C2) | ^F3 ^G =A3 ^A | ^B3 ^c ^d3 =d | x8 | x8 | z3 ^c ^d(c/d/) f(d/f/) | %11
 x3 ^c ^d(c/d/) =f(d/f/) | z3 ^A c(A/c/) d(c/d/) | z4 z ^F2 E- | E x z ^A, =A,3 ^G, | %15
 (^D2 =D2) (^C2 B,2) | E3 ^F =G3 ^G | ^A3 B ^c3 =c | x2 z ^A, =A,3 ^G, | (^D2 =D2) (^C2 B,2) | %20
 E3 ^F =G3 ^G | ^A3 B ^c3 =c | x8 | x8 | z4 B2 A2 | x4 B2 A2 | x8 | z4 e2 d2 | x8 | x8 | x8 | x8 | %32
 x8 | x8 | x8 | x8 | x8 | x8 | x8 | x8 | z4 [Dd]4 | [Ee]2 [^F^f]2 [Gg]2 [^G^g]2 | x8 | x8 | %44
 x4 [Dd]4 | [Ee]2 [^F^f]2 [Gg]2 [^G^g]2 | x8 | x8 | x8 | x8 | x8 | x8 | x8 | x8 | x8 | x8 | x8 | %57
 x8 | x8 | z4 E2 E2 | x8 | x8 | x8 | z4 ^F2 F2 | x8 | x8 | x8 | x8 | x8 | x8 | x8 | x8 | x8 | x8 | %74
 x8 | x8 | x8 | x8 | ^g2 [^fg=c']2 [eg]2 [fg=c']2 | [e^g]2 [^fg=c']2 [eg]2 [fg=c']2 | x8 | %81
 z2 (!>!e'2 ^c'2) (!>!a'2 | ^g'2) (^d'>e' g'2) d'>e' | x8 | x8 | ^g6 (a>b) | [^fa]4 (f2 ^g2) | %87
 z2 (B^c) Td2({cd)} bd | z4 =c4 | x4 ^G4 | x4 ^g4 | x8 | .[e^g] z z2 z4 | x8 | x8 | x8 |] %96
V:3
 ^C,4 !//-!^G,,2 C,2 | !//-!^G,,4 ^C,4 | !//-!^G,,4 ^C,4 | !//-!^G,,4 ^C,4 | %4
 [^C,,^G,,^C,] !//-!G,,3/2 C,3/2 !//-!G,,2 C,2 | !//-!^G,,4 ^C,4 | !//-!^G,,4 ^C,4 | %7
 !//-!^G,,4 ^C,4 | [^C,^C] z z F, G,(^F,/G,/) [A,_E](^G,/A,/) | %9
 [^A,,^A,^C] z z F, G,(^F,/G,/) [=A,_E](^G,/A,/) | [^A,,^A,^C] z z A, ^G,3 ^C, | %11
 [^F,^A,] z z A, ^G,3 ^C, | [^F,^A,] z z F, =F,3 ^A,, | [^D,^F,]!mf! [^D,,D,] [^F,,F,]6- | %14
 [F,,F,] ^F,,/B,,/ !//-!F,,3 B,,3 | !//-!^F,,4 B,,4 | !//-!^F,,4 B,,4 | !//-!^F,,4 B,,4 | %18
 [B,,,^D,,B,,] ^F,,/B,,/ !//-!F,,3 B,,3 | !//-!^F,,4 B,,4 | !//-!^F,,4 B,,4 | !//-!^F,,4 B,,4 | %22
 [B,,B,] z z [B,,^D,] F,(D,/F,/) G,(F,/G,/) | [^G,B,] z z [B,,^D,] F,(D,/F,/) =G,(F,/G,/) | %24
 [^G,B,]!mf! ^G,, B,,6- | B,,^G,, B,,6- | B,, z z[K:treble] ^g ^a(g/a/) c'(a/c'/) | %27
 [e^c'][K:bass] ^C, E,6- | [E,^C]!mp! E,,/[A,,^C,]/ !//-!E,,3 [A,,C,]3 | !//-!E,,4 [A,,^C,]4 | %30
 !//-!E,,4 [A,,^C,]4 | !//-!E,,4 [A,,^C,]4 | !//-!E,,4 [A,,^C,]4 | !//-!E,,4 [A,,^C,]4 | %34
 !//-!E,,4 [A,,^C,]4 | !//-!E,,4 [A,,^C,]4 | [A,,^C,] z z!mf! [B,,B,] [^A,,^A,]3 [^F,,^F,] | %37
 [B,,B,]3 [A,,A,] [^G,,^G,]3 [E,,E,] | [A,,A,] z z [E,E] [^D,^D]3 [B,,B,] | %39
 [E,E]3 [D,D] [^C,^C]3 [A,,A,] |!mp! !//-!A,,,4 D,,4 |!mp! !//-!A,,,4 D,,4 |!mp! !//-!A,,4 D,4 | %43
!mp! !//-!A,,4 D,4 |!mp! !//-!A,,,4 D,,4 |!mp! !//-!A,,,4 D,,4 |!mp! !//-!A,,4 D,4 | %47
!mp! !//-!A,,4 D,4 | z3 [E,,E,] [^D,,^D,]3 [B,,,B,,] | [E,,E,]3 [D,,D,] [^C,,^C,]3 A,, | %50
 [D,,D,] z z [A,,A,] [^G,,^G,]3 [E,,E,] | [A,,A,]3 [G,,G,] [^F,,^F,]3 [D,,D,] | %52
!mf!!ped! [G,,B,,] (!//-!G,, ^D,) (!//-!G,, E,) (!//-!G,, F,) (G,,/^F,/)!ped-up! | %53
!ped! (G,,/G,/) (!//-!G,, ^D,) (!//-!G,, E,) (!//-!G,, F,) (G,,/^F,/)!ped-up! | %54
!mf! G,,/G,/G,,/^F,/ G,,/G,/G,,/F,/ G,,/G,/G,,/F,/ G,,/G,/G,,/C,/ | %55
 G,,/G,/G,,/^F,/ G,,/G,/G,,/F,/ G,,/G,/G,,/F,/ G,,/G,/G,,/C,/ | [G,,G,] z z2!p! [F,D] z z2 | %57
 [^F,^C] z z2 [^A,,F,] z z2 | [B,,^F,B,] z z2 [F,,D,G,] z z2 | %59
 [^F,,D,^F,] z z2 [F,,F,^G,] z [F,^A,] z | [B,,^F,] z z2 [^C,F,A,] z z2 | %61
 !arpeggio![C,^G,^D] z z2 !arpeggio![^G,,G,C] z z2 | [^C,^G,^C] z z2 [^F,,A,,] z z2 | %63
 [^G,,^C,^G,] z z2 [G,,G,^A,] z [G,C] z | %64
 [^C,^G,][K:treble] z [C,^C]/ z/ [^D,^D]/ z/ [E,E]/ z/ [G,^G]/ z/ [C^c]/ z/ [Ee]/ z/ | %65
[K:bass] z2 [^C,,^C,]2 [=C,,=C,]2 [^G,,^G,]2 | [^C,,^C,]2 z [C,,C,] [^F,,^F,]2 z [F,,F,] | %67
 [^G,,^G,]2 z [E,,E,] [^D,,^D,]2 [G,,G,]2 | %68
 [^C,,^C,][K:treble] [C,^C]/ z/ [^D,^D]/ z/ [E,E]/ z/ [^^F,^^F]/ z/ [^G,^G]/ z/ [C^c]/ z/ [Ee]/ z/ | %69
[K:bass] z2 [^C,,^C,]2 [=C,,=C,]2 [^G,,^G,]2 | [^C,,^C,]2 z [C,,C,] [^F,,^F,]2 z [F,,F,] | %71
 [^G,,^G,]2 z [E,,E,] [^D,,^D,]2 [G,,G,]2 | %72
 [^C,,^C,][K:treble] [E,E]/ z/ [^G,^G]/ z/ [^C^c]/ z/[K:bass] [C,,C,]3 [^D,^D] | %73
 [^C,,^C,][K:treble] [E,E]/ z/ [^G,^G]/ z/ [^C^c]/ z/[K:bass] [C,,C,]3 [^D,^D] | %74
[K:treble] [^CE^G^c]/ z/ [Cc]/ z/ [^DGc^d]/ z/ [Ee]/ z/ [^F^f]/ z/ [Ee]/ z/ [FGcef]/ z/ [G^g]/ z/ | %75
 [A^ce]2 [Ac^f]2 [Adf]2 [^^B^df] [^G^g]/ z/ | %76
 [Bd^fb]/ z/ [Aa]/ z/ [^G^g]/ z/ [Aa]/ z/ [Bb]/ z/ [Aa]/ z/ [^Ff]/ z/ [Dd]/ z/ | %77
 [^CA^c]2 [C^Gc]2 [=CG=c]4 | [^G^c]2 [G=c]2 [G^c]2 [G=c]2 | [^G^c]2 [G=c]2 [G^c]2 [G=c]2 | %80
[K:bass] [^C,^C]2 C2 [^C,,E,,^G,,C,]2 !fermata!z2 |[K:treble]!p! [^ce^g]4 [Gea]4 | %82
 [^G^d^g]2- [Gdg] z [c^fg]2 [Gfg]2 | [^ceg]2 z2 [ea]4 | ^G4 [^f^g]4 | (e2 ^d2 B2) (A>^G) | %86
 ^c4 ^d4 |[K:bass] [^CF](CDC B,)(B,CB, | A,)(A,^G,A,) !///-!^D E{/^^CD} ([G,E][^F,D] | %89
 [^C,E,^C]) z z2 [C,^F,^G,]4 | [^C,^G,] z z2[K:treble] [^C^F^G]4 | [^Ge^g] z z2 z4 | %92
 .[^CE^G^c] z z2 (3.c.^g.e (3.c.G.E |[K:bass] z2!pp! .[^C,E,^G,]2 z2 .[C,E,G,^C]2 | %94
 .[^C,E,^G,^C]2 z2 .[C,E,G,C]2 z2 | .[^C,E,^G,^C]2 z2 !fermata!z4 |] %96
V:4
 z8 | ^G,3 =G, ^F,3 =F, |[K:treble] [^F,^C][^A^d] [^G^c]2 [^Fc]4 | ^d2 f2 ^f4- | [Gf] z z2 z4 | %5
 ^G,3 =G, ^F,3 =F, |[K:treble] [^F,^C][^A^d] [^G^c]2 [^Fc]4 | ^d2 f2 ^f4- | [Gf] z z2 z4 | z8 | %10
 z8 | z8 | z8 | z8 | z8 |[K:bass] ^F,3 =F, E,3 ^D, |[K:treble] [E,B,][^G^c] [^FB]2 [EB]4 | %17
 ^c2 ^d2 (e4 | [F^d]) z z2 z4 |[K:bass] ^F,3 =F, E,3 ^D, |[K:treble] [E,B,][^G^c] [^FB]2 [EB]4 | %21
 ^c2 ^d2 (e4 | [F^d]) z z2[K:bass] ^A,,3 [^D,,^D,] | ^G,, z z2 ^A,,3 [^D,,^D,] | %24
 ^G,, z z ^G, ^F,3 B,, | E, z z ^G, ^F,3 B,, |[K:treble] E, z z E ^D3 ^G, | %27
 ^c z z E ^F(E/F/) ^G(F/G/) | A z z z [A,A]4 | ([B,B]2 [^C^c]2 [Dd]2 [^D^d]2) | %30
!mf! [^CE]E (!>!G2 ^F)E/D/ C2- | CD (!>!^F2 E)D/^C/ (=C2 | ^C) z2 z [A,A]4 | %33
 ([B,B]2 [^C^c]2 [Dd]2 [^D^d]2) |!mf! [^CE]E (!>!G2 ^F)E/D/ C2- | CD (!>!^F2 E)D/^C/ =C2 | %36
 ^C z z2 z4 | z8 | z8 | z8 |[K:bass] z3!f! ^A,, B,,3 C, | ^C,3 D, E,3 F, | %42
!mf! ^F,A, (!>!C2 B,)A,/G,/ !>!F,2- | F,G, (!>!B,2 A,)G,/^F,/ (!>!=F,2 | ^F,) z z!f! ^A,, B,,3 C, | %45
 ^C,3 D, E,3 F, |!mf! ^F,A, (!>!C2 B,)A,/G,/ !>!F,2- | F,G, (!>!B,2 A,)G,/^F,/ !>!=F,2 | %48
 [D,^F,] z z2 z4 | z8 | z8 | z8 |[K:treble] z4 z [DA]2 ([DA] | [DG]) z z2 z [DA]2 ([DA] | %54
 [DG]) (!>!AG) (!>!AG) (!>!AG) (!>!c | [GB]) (!>!AG) (!>!AG) (!>!AG) (!>!c | [GB]) z z2 z4 | z8 | %58
 z8 | z8 | z8 | z8 | z8 | z8 | z8 | ([^F,^F]4 ^D)(D^GF) | E!>!^C !>!E2- E!>!C !>!^D2- | %67
 D!>!^C !>!E2- E ^D2 D | [^C^G] z z2 z4 | ([^F,^F]4 ^D)(D^GF) | E!>!^C !>!E2- E!>!C !>!^D2- | %71
 D!>!^C !>!E2- E ^D2 D | [^C^G] z z2 [Ac^f]4 | [^G,^G] z z2 [Ac^f]4 | %74
[K:bass] [^C,,^C,] z [E,,E,]4 [C,,C,]2 | [A,,A,]2 [^F,,^F,]2 [D,,D,]2 [^G,,^G,]2 | [^F,,^F,]4 z4 | %77
 [^^F,,^^F,]2 [^G,,^G,]2 [G,,G,]4 | [^C,,^C,]2 ^G,,2 [C,,C,]2 G,,2 | %79
 [^C,,^C,]2 ^G,,2 [C,,C,]2 G,,2 | z8 | z8 | z8 | z8 | z8 | z8 | z8 | z8 | z8 | z8 | z8 | z8 | z8 | %93
 z8 | z8 | z8 |] %96
V:5
 x8 | x8 |[K:treble] x8 | ^G4 G4- | x8 | x8 |[K:treble] x8 | ^G4 G4- | x8 | x8 | x8 | x8 | x8 | %13
 x8 | x8 |[K:bass] x8 |[K:treble] x8 | ^F4 F4- | x8 |[K:bass] x8 |[K:treble] x8 | ^F4 F4- | %22
 x4[K:bass] x4 | x8 | x8 | x8 |[K:treble] z3 ^G ^A(G/A/) c(A/c/) | x8 | z3 F, ^F,3 G, | %29
 ^G,3 A, B,3 =C | x8 | x8 | z3 F, ^F,3 G, | ^G,3 A, B,3 =C | x8 | x8 | x8 | x8 | x8 | x8 | %40
[K:bass] x8 | x8 | x8 | x8 | x8 | x8 | x8 | x8 | x8 | x8 | x8 | x8 |[K:treble] x8 | x8 | %54
 z D2 D2 D2 G- | G D2 D2 D2 G- | G z z2 z4 | x8 | x8 | x8 | x8 | x8 | x8 | x8 | x8 | %65
 z2 [^C^FA^c]2 [^G^d]2 [=cd]2 | [^G^ce]2 z [Gce] [Ac^f]2 z [Acf] | %67
 [^G^ce]2 z [Gc^g] [^Ac^^f]2 [G=c^f]2 | x8 | z2 [^C^FA^c]2 [^G^d]2 [=cd]2 | %70
 [^G^ce]2 z [Gce] [Ac^f]2 z [Acf] | [^G^ce]2 z [Gc^g] [^Ac^^f]2 [G=c^f]2 | x8 | x8 |[K:bass] x8 | %75
 x8 | x8 | x8 | x8 | x8 | x8 | x8 | x8 | x8 | x8 | x8 | x8 | x8 | x8 | x8 | x8 | x8 | x8 | x8 | %94
 x8 | x8 |] %96
V:6
 x8 | x8 | x8 | x8 | x8 | x8 | x8 | x8 | z3 ^C, [=C,F,]3 F,, | x3 ^C, [=C,F,]3 F,, | %10
 z2 z2 ^C2 B,2 | x2 z2 ^C2 B,2 | x x z2 ^A,2 ^G,2 | z3 ^D, ^C,3 ^F,, | x8 | x8 | x8 | x8 | x8 | %19
 x8 | x8 | x8 | z4 ^D2 ^C2 | x4 ^D2 ^C2 | x8 | x8 | z4[K:treble] ^g2 ^f2 | z3[K:bass] E ^D3 ^G, | %28
 x8 | x8 | x8 | x8 | x8 | x8 | x8 | x8 | x8 | x8 | x8 | x8 | x8 | x8 | x8 | x8 | x8 | x8 | x8 | %47
 x8 | x8 | x8 | x8 | x8 | x8 | x8 | x8 | x8 | x8 | x8 | x8 | x8 | x8 | x8 | x8 | x8 | %64
 x[K:treble] x7 |[K:bass] x8 | x8 | x8 | x[K:treble] x7 |[K:bass] x8 | x8 | x8 | %72
 x[K:treble] x3[K:bass] x4 | x[K:treble] x3[K:bass] x4 |[K:treble] x8 | x8 | x8 | %77
 (^C^D E2-) E(^GED | ^C)(^GE^D C)GED | ^C(^GE^D C)GED |[K:bass] x8 |[K:treble] x8 | x8 | %83
 z2 x2 ([G^c]2 A2) | ([e^g]2 [^ce]2) (^A2 =c2) | ^C8 | ^F4 A2 ^G>F |[K:bass] x8 | x8 | x8 | %90
 x4[K:treble] x4 | x8 | x8 |[K:bass] x8 | x8 | x8 |] %96
V:7
 x8 | x8 | x8 | x8 | x8 | x8 | x8 | x8 | x8 | x8 | x4 ^c2 B2 | x4 ^c2 B2 | x4 ^A2 ^G2 | x8 | x8 | %15
 x8 | x8 | x8 | x8 | x8 | x8 | x8 | x8 | x8 | x8 | x8 | x8 | x8 | x8 | x8 | x8 | x8 | x8 | x8 | %34
 x8 | x8 | x8 | x8 | x8 | x8 | x8 | x8 | x8 | x8 | x8 | x8 | x8 | x8 | x8 | x8 | x8 | x8 | x8 | %53
 x8 | x8 | x8 | x8 | x8 | x8 | x8 | x8 | x8 | x8 | x8 | x8 | x8 | x8 | x8 | x8 | x8 | x8 | x8 | %72
 x8 | x8 | x8 | x8 | x8 | x8 | x8 | x8 | x8 | x8 | x8 | x8 | x8 | x8 | x8 | x8 | x8 | x8 | x8 | %91
 x8 | x8 | x8 | x8 | x8 |] %96
V:8
 x8 | x8 | x8 | x8 | x8 | x8 | x8 | x8 | x8 | x8 | x8 | x8 | x8 | x8 | x8 | x8 | x8 | x8 | x8 | %19
 x8 | x8 | x8 | x8 | x8 | x8 | x8 | x3[K:treble] x5 | x[K:bass] x7 | x8 | x8 | x8 | x8 | x8 | x8 | %34
 x8 | x8 | x8 | x8 | x8 | x8 | x8 | x8 | x8 | x8 | x8 | x8 | x8 | x8 | x8 | x8 | x8 | x8 | x8 | %53
 x8 | x8 | x8 | x8 | x8 | x8 | x8 | x8 | x8 | x8 | x8 | x[K:treble] x7 |[K:bass] x8 | x8 | x8 | %68
 x[K:treble] x7 |[K:bass] x8 | x8 | x8 | x[K:treble] x3[K:bass] x4 | x[K:treble] x3[K:bass] x4 | %74
[K:treble] x8 | x8 | x8 | x8 | x8 | x8 |[K:bass] x8 |[K:treble] x8 | x8 | x8 | x8 | x4 e4 | x8 | %87
[K:bass] x8 | x8 | x8 | x4[K:treble] x4 | x8 | x8 |[K:bass] x8 | x8 | x8 |] %96

